X:1
T:De long travail
T:Pierre Certon
T:Source : Livre XII de 30 chansons nouvelles à 4 parties---Paris---P.Attaingnant---1543. Editor : André Vierendeels (10/06/18) Notes : Original clefs : C1, C3, C4, F4 O0riginal note values have been halved Editorial accidentals above the staff 
T:De long travail
T:©
T:©
T:©
T:©
C:Pierre Certon
Z:©
%%score [ 1 [ 2 3 ] 4 ]
L:1/8
Q:1/4=120
M:2/2
K:F
V:1 treble nm="Alto" snm="A"
V:2 treble-8 nm="Tenor 1" snm="T 1"
V:3 treble-8 nm="Tenor 2" snm="T 2"
V:4 bass nm="Bass" snm="B"
V:1
 F8 | F4 G4 | A8 | z2 F2 D2 D2 | G2 E2 F4 | E4 z2 E2 | E2 E2 FEFG | A4 G4 | z2 F2 G2 B2 | %9
w: De|long tra-|vail,|heu- reu- se|re- com- pen-|se, peult|bien ys- sir _ _ _|_ _|de l'a- mour|
w: A|ceulx qui|bien|pour- ront en|pa- ti- en-|ce souf-|frir le mal _ _ _|_ _|dont la foy|
 A2 A2 B3 A | GF A2 G2 F2- | F2 E2 F4 :| F4 D2 D2 | G6 FE | F2 F2 F2 E2 | F2 G2 A3 G/F/ | E8 | %17
w: at- ten du- *||* * e,|mais si el-|l'est _ _|_ par aul- truy|cor- rom- pu- * *|e,|
w: est con- gneu- *||* * e,||||||
 z2 F4 E2 | F4 C2 F2 | F2 F2 E2 C2 | D4 E4 |: z4 F4- | F4 F4 | G4 A4- | A4 z2 F2 | D2 D2 G2 E2 | %26
w: sans en|a- voir re-|ceu con- ten- *|te- ment,|con-|* trainct|se- ray|_ de|chan- ter ces- te'ys-|
w: |||||||||
 F4 E4 | z2 E2 E2 E2 | FEFF A4 | G4 z2 F2 | G2 B2 A2 A2 | B3 A GF A2 | G2 F4 E2 | F8 |] %34
w: su- e,|à te ser-|vir _ _ _ _|_ n'a|que pei- n'et tour-|||ment.|
w: ||||||||
V:2
 c4 d4- | d2 c2 B4 | A2 c2 d2 d2 | c2 c2 B3 A | G2 A4 GF | G4 z2 c2- | c2 c2 d4 | c2 f2 f2 e2 | %8
w: De long|_ _ tra-|vail, heu- reu- se|re- com- pen- *||se, peult|_ bien ys-|ser de l'a- mour|
w: A ceulx|_ _ qui|bien pour- ront en|pa- ti- en- *||ce souf-|* frir le|mal, dont la foy|
 f2 c2 d2 e2 | c2 f2 d4- | d2 c2 d2 B2 | c4 A4 :| d4 B2 B2 | d6 cB | A2 A2 c2 c2 | d2 c4 B2 | %16
w: at- ten- du- *|||* e,|mais si el-|l'est _ _|_ par aul- truy|cor- rom- pu-|
w: est con- gneu- *|||* e,|||||
 c4 z2 c2 | d4 cBAG | A2 c2 A2 A2 | d2 d4 c2- |"^-natural" c2 B2 c4 |: z4 c4 | d6 c2 | B4 A2 c2 | %24
w: e, sans|en a- * * *|* * voir re-|ceu con- ten-|* te ment,|con-|trainct se-|* ray, de|
w: ||||||||
 d2 d2 c2 c2 | B3 A G2 A2- | A2 GF G4 | z2 c4 c2 | d4 c2 f2 | f2 e2 f2 c2 | d2 e2 c2 f2 | d6 c2 | %32
w: chan- ter ces- te'ys-|su- * * *|* * * e,|à te|ser- vir n'a|que pei- n'et tour-|* ment, n'a que|pei- n'et|
w: ||||||||
 d2 B2 c4 | A8 |] %34
w: tour- * *|ment.|
w: ||
V:3
 A4 B4- | B2 A2 G4 | F4 z2 A2 | A2 A2 B2 d2- | d2 c4 B2 | c4 z2 G2- | G2 G2 B4 | A2 c2 c2 c2 | %8
w: De long|_ _ tra-|vail, heu-|reu- se re- com-|* pen- *|se, peult|bien ys- sir|de l'a- mour at-|
w: A ceulx|_ _ qui|bien pour-|ront en pa- ti-|* en- *|ce, souf-|* frir le|mal dont la foy|
 B2 A2 G4 | F2 F2 G2 B2 | B2 A2 BAGF | G4 F4 :| F8 | B4 A2 A2 | d2 d2 G2 G2 | A2 G4 F2 | G2 G4 G2 | %17
w: ten- du- e,|de l'a- mour at-|ten- du- * * * *|* e,|mais|si el- l'est|par aul- truy cor-|rom- pu- *|e, sans en|
w: est con- gneu-|e, dont la foy|est con- gneu- * * *|* e,||||||
 B4 G2 c2 | cBAG F2 F2 | B2 B2 G4- | G4 G4 |: z4 A4 | B6 A2 | G4 F4 | z2 A2 A2 A2 | B2 d4 c2- | %26
w: a- voir re-|ceu _ _ _ _ con-|* ten- te-|* ment,|con|trainct se-|* ray|de chan- ter|ces- te'ys- su-|
w: |||||||||
 c2 B2 c4 | z2 G4 G2 | B4 A2 c2 | c2 c2 B2 A2 | G4 F2 F2 | G2 B2 B2 A2 | BAGF G4 | F8 |] %34
w: * * e,|à te|ser- vir, n'a|que pei- n'et tour-|* ment, n'a|que pei- n'et tour-||ment.|
w: ||||||||
V:4
 F,,4 B,,3 C, | D,E, F,4 E,2 | F,2 F,2 D,2 D,2 | F,2 F,2 G,3 F, | E,2 D,C, D,4 | C,4 z2 C,2 | %6
w: De long _|_ _ _ tra-|vail, heu- reu- se|re- com- pen- *||se, peult|
w: A ceulx _|_ _ _ _|* qui bien pour-|ront en pa- *|* ti- * en-|ce, souf-|
 C,2 C,2 B,,C,D,E, | F,4 C,2 C,2 | D,2 F,2 F,2 E,2 | F,E,D,C, B,,A,, G,,2 | B,,2 F,,2 B,,2 D,2 | %11
w: bien ys- sir _ _ _|_ _ de|l'a- mour at- ten|du- * * * * * *||
w: frir le mal _ _ _|_ _ dont|la foy est con-|gneu- * * * * * *|* e, con- gneu-|
 C,4 F,,4 :| B,,8 | G,,2 G,,2 D,4- | D,2 D,2 C,2 C,2 | F,2 E,2 D,4 | C,4 z2 C,2- | C,2 B,,2 C,4 | %18
w: * e,|mais|si el- l'est|_ par aul- truy|cor- rom- pu-|e, sans|_ en a-|
w: * e,|||||||
 F,,2 F,2 F,E,D,C, | B,,2 B,,2 C,2 C,2 | G,,4 C,4 |: z4 F,,4 | B,,3 C, D,E, F,2- | %23
w: voir re- ceu _ _ _|_ con- * ten-|te- ment,|con-|trainct _ _ _ _|
w: |||||
 F,2 E,2 F,2 F,2 | D,2 D,2 F,2 F,2 | G,3 F, E,2 D,C, | D,4 C,4 | z2 C,2 C,2 C,2 | B,,C,D,E, F,4 | %29
w: _ se- ray de|chan- ter ces- te'ys-|su- * * * *|* e,|à te ser-|vir _ _ _ _|
w: ||||||
 C,2 C,2 D,2 F,2 | F,2 E,2 F,E,D,C, | B,,A,, G,,2 B,,2 F,,2 | B,,2 D,2 C,4 | F,,8 |] %34
w: _ n'a que pei-|n'et tour- * * * *|||ment.|
w: |||||

